src/img/trash-can-light.svg

<svg xmlns="http://www.w3.org/2000/svg" viewBox="0 0 448 512"><path fill="#fff" d="M144 400c0 8.8-7.2 16-16 16s-16-7.2-16-16V176c0-8.8 7.2-16 16-16s16 7.2 16 16v224zm96 0c0 8.8-7.2 16-16 16s-16-7.2-16-16V176c0-8.8 7.2-16 16-16s16 7.2 16 16v224zm96 0c0 8.8-7.2 16-16 16s-16-7.2-16-16V176c0-8.8 7.2-16 16-16s16 7.2 16 16v224zM310.1 22.56L336.9 64H432c8.8 0 16 7.16 16 16s-7.2 16-16 16h-16v336c0 44.2-35.8 80-80 80H112c-44.18 0-80-35.8-80-80V96H16C7.164 96 0 88.84 0 80s7.164-16 16-16h95.1L137 22.56C145.8 8.526 161.2 0 177.7 0h92.6c16.5 0 31.9 8.526 39.8 22.56zM148.9 64h150.2l-15.3-24.48c-2.9-4.68-8-7.52-13.5-7.52h-92.6c-5.5 0-10.6 2.84-13.5 7.52L148.9 64zM64 432c0 26.5 21.49 48 48 48h224c26.5 0 48-21.5 48-48V96H64v336z"/></svg>

<svg xmlns="http://www.w3.org/2000/svg" viewBox="0 0 448 512">
  <path fill="white" d="M144 400C144 408.8 136.8 416 128 416C119.2 416 112 408.8 112 400V176C112 167.2 119.2 160 128 160C136.8 160 144 167.2 144 176V400zM240 400C240 408.8 232.8 416 224 416C215.2 416 208 408.8 208 400V176C208 167.2 215.2 160 224 160C232.8 160 240 167.2 240 176V400zM336 400C336 408.8 328.8 416 320 416C311.2 416 304 408.8 304 400V176C304 167.2 311.2 160 320 160C328.8 160 336 167.2 336 176V400zM310.1 22.56L336.9 64H432C440.8 64 448 71.16 448 80C448 88.84 440.8 96 432 96H416V432C416 476.2 380.2 512 336 512H112C67.82 512 32 476.2 32 432V96H16C7.164 96 0 88.84 0 80C0 71.16 7.164 64 16 64H111.1L137 22.56C145.8 8.526 161.2 0 177.7 0H270.3C286.8 0 302.2 8.526 310.1 22.56V22.56zM148.9 64H299.1L283.8 39.52C280.9 34.84 275.8 32 270.3 32H177.7C172.2 32 167.1 34.84 164.2 39.52L148.9 64zM64 432C64 458.5 85.49 480 112 480H336C362.5 480 384 458.5 384 432V96H64V432z" />
</svg>
